assets/duotone/cake.svg

<svg xmlns="http://www.w3.org/2000/svg" width="66" height="66" viewBox="0 0 24 24" class="duoicon duoicon-cake" style="color: rgb(99, 102, 241);"><path fill="currentColor" d="M17.707 15.707a.414.414 0 0 1 .586 0 2.414 2.414 0 0 0 2.707.491V20a1 1 0 1 1 0 2H3a1 1 0 1 1 0-2v-3.802c.89.405 1.975.241 2.707-.49a.414.414 0 0 1 .586 0 2.414 2.414 0 0 0 3.414 0 .414.414 0 0 1 .586 0 2.414 2.414 0 0 0 3.414 0 .414.414 0 0 1 .586 0 2.414 2.414 0 0 0 3.414 0v-.001ZM16.5 2c-.319.638-.028 1.05.225 1.41.144.203.275.39.275.59a1 1 0 1 1-2 0c0-.552.5-1.5 1.5-2Zm-8 0c-.319.638-.028 1.05.225 1.41.144.203.275.39.275.59a1 1 0 1 1-2 0c0-.552.5-1.5 1.5-2Zm4 0c-.319.638-.028 1.05.225 1.41.144.203.275.39.275.59a1 1 0 1 1-2 0c0-.552.5-1.5 1.5-2Z" class="duoicon-primary-layer"></path><path fill="currentColor" d="M16 6a1 1 0 0 1 1 1v2h1a3 3 0 0 1 3 3v1.586l-.707.707a.414.414 0 0 1-.586 0 2.414 2.414 0 0 0-3.414 0 .414.414 0 0 1-.586 0 2.414 2.414 0 0 0-3.414 0 .414.414 0 0 1-.586 0 2.414 2.414 0 0 0-3.414 0 .414.414 0 0 1-.586 0 2.414 2.414 0 0 0-3.414 0 .414.414 0 0 1-.586 0L3 13.586V12a3 3 0 0 1 3-3h1V7a1 1 0 1 1 2 0v2h2V7a1 1 0 1 1 2 0v2h2V7a1 1 0 0 1 1-1Z" class="duoicon-secondary-layer" opacity=".3"></path></svg>

<svg class="duoicon" width="1em" height="1em" viewBox="0 0 24 24" xmlns="http://www.w3.org/2000/svg">
  <path fill="currentColor" d="M 17.707 15.707 C 17.869 15.545 18.131 15.545 18.293 15.707 C 19.005 16.419 20.084 16.615 21 16.198 L 21 20 C 21.77 20 22.251 20.833 21.866 21.5 C 21.687 21.809 21.357 22 21 22 L 3 22 C 2.23 22 1.749 21.167 2.134 20.5 C 2.313 20.191 2.643 20 3 20 L 3 16.198 C 3.89 16.603 4.975 16.439 5.707 15.708 C 5.869 15.546 6.131 15.546 6.293 15.708 C 7.236 16.651 8.764 16.651 9.707 15.708 C 9.869 15.546 10.131 15.546 10.293 15.708 C 11.236 16.651 12.764 16.651 13.707 15.708 C 13.869 15.546 14.131 15.546 14.293 15.708 C 15.236 16.651 16.764 16.651 17.707 15.708 L 17.707 15.707 Z" class="duoicon-primary-layer"></path>
  <path fill="currentColor" d="M 16.5 2 C 16.181 2.638 16.472 3.05 16.725 3.41 C 16.869 3.613 17 3.8 17 4 C 17 4.77 16.167 5.251 15.5 4.866 C 15.191 4.687 15 4.357 15 4 C 15 3.448 15.5 2.5 16.5 2 Z" class="duoicon-primary-layer"></path>
  <path fill="currentColor" d="M 8.5 2 C 8.181 2.638 8.472 3.05 8.725 3.41 C 8.869 3.613 9 3.8 9 4 C 9 4.77 8.167 5.251 7.5 4.866 C 7.191 4.687 7 4.357 7 4 C 7 3.448 7.5 2.5 8.5 2 Z" class="duoicon-primary-layer"></path>
  <path fill="currentColor" d="M 12.5 2 C 12.181 2.638 12.472 3.05 12.725 3.41 C 12.869 3.613 13 3.8 13 4 C 13 4.77 12.167 5.251 11.5 4.866 C 11.191 4.687 11 4.357 11 4 C 11 3.448 11.5 2.5 12.5 2 Z" class="duoicon-primary-layer"></path>
  <path fill="currentColor" d="M 16 6 C 16.552 6 17 6.448 17 7 L 17 9 L 18 9 C 19.657 9 21 10.343 21 12 L 21 13.586 L 20.293 14.293 C 20.131 14.455 19.869 14.455 19.707 14.293 C 18.764 13.35 17.236 13.35 16.293 14.293 C 16.131 14.455 15.869 14.455 15.707 14.293 C 14.764 13.35 13.236 13.35 12.293 14.293 C 12.131 14.455 11.869 14.455 11.707 14.293 C 10.764 13.35 9.236 13.35 8.293 14.293 C 8.131 14.455 7.869 14.455 7.707 14.293 C 6.764 13.35 5.236 13.35 4.293 14.293 C 4.131 14.455 3.869 14.455 3.707 14.293 L 3 13.586 L 3 12 C 3 10.343 4.343 9 6 9 L 7 9 L 7 7 C 7 6.23 7.833 5.749 8.5 6.134 C 8.809 6.313 9 6.643 9 7 L 9 9 L 11 9 L 11 7 C 11 6.23 11.833 5.749 12.5 6.134 C 12.809 6.313 13 6.643 13 7 L 13 9 L 15 9 L 15 7 C 15 6.448 15.448 6 16 6 Z" opacity=".3" class="duoicon-secondary-layer"></path>
</svg>
